assets/img/common/page-arrow-prev.svg

<svg fill="none" height="20" viewBox="0 0 10 20" width="10" xmlns="http://www.w3.org/2000/svg"><path clip-rule="evenodd" d="m9.85885.1483c.18825.197734.18825.518324 0 .716058l-8.69537 9.135642 8.69537 9.1356c.18825.1978.18825.5184 0 .7161-.18821.1977-.49335.1977-.68155 0l-9.036146-9.4937c-.090379-.0949-.14115401-.2237-.141154-.358.00000001-.13429.050775-.26307.141154-.35803l9.036146-9.49367c.1882-.1977335.49334-.1977335.68155 0z" fill="#000" fill-rule="evenodd"/></svg>

<svg width="10" height="20" viewBox="0 0 10 20" fill="none" xmlns="http://www.w3.org/2000/svg">
  <path fill-rule="evenodd" clip-rule="evenodd"
    d="M9.85885 0.1483C10.0471 0.346034 10.0471 0.666624 9.85885 0.864358L1.16348 10L9.85885 19.1356C10.0471 19.3334 10.0471 19.654 9.85885 19.8517C9.67064 20.0494 9.3655 20.0494 9.1773 19.8517L0.141154 10.358C0.050775 10.2631 -5.86983e-09 10.1343 0 10C5.86987e-09 9.86571 0.050775 9.73693 0.141154 9.64197L9.1773 0.1483C9.3655 -0.0494335 9.67064 -0.0494335 9.85885 0.1483Z"
    fill="black" />
</svg>
